X:888
T:Going to the Well for Water
S:Sessions
Z:Nigel Gatherer
M:12/8
L:1/8
K:D
A2f A2f A2f fed | B2g B2g B2g gfe |
c3  BcB Ace a2f | gec ABc d3  d3 :|
f3  fed e3  edc | d3  dcB c3  cBA |
G2B G2B F2A F2A | E3  e2d cBc d3 :|
<end>
<start>
